packages/icons/src/components/Icon/assets/default-solid/hand.svg

<svg width="20" height="20" viewBox="0 0 20 20" fill="none" xmlns="http://www.w3.org/2000/svg">
<path d="M8.96566 2.8C8.96566 2.35817 9.32383 2 9.76566 2C10.2075 2 10.5657 2.35817 10.5657 2.8V8.64451C10.9336 8.75986 11.2915 8.91603 11.6323 9.113V3.86667C11.6323 3.42484 11.9905 3.06667 12.4323 3.06667C12.8742 3.06667 13.2323 3.42484 13.2323 3.86667V11.6442C12.2241 11.8134 11.3757 12.454 10.9216 13.3317C11.7784 12.906 12.7441 12.6667 13.7657 12.6667C14.0602 12.6667 14.299 12.4279 14.299 12.1333V10.5333L14.299 10.5217C14.302 9.91257 14.5364 9.30176 15.0019 8.83627C15.3143 8.52385 15.8209 8.52385 16.1333 8.83627C16.4457 9.14869 16.4457 9.65522 16.1333 9.96764C15.9779 10.123 15.9 10.3248 15.899 10.5294L15.899 10.5333L15.899 12.6667H15.8957C15.8537 13.7375 15.4099 14.7557 14.6493 15.5163L13.4153 16.7503C12.6152 17.5505 11.5299 18 10.3983 18H8.96566C6.02014 18 3.63232 15.6122 3.63232 12.6667V6C3.63232 5.55817 3.9905 5.2 4.43232 5.2C4.87415 5.2 5.23232 5.55817 5.23232 6V9.92456C5.55999 9.60326 5.91883 9.33274 6.29899 9.113V3.86667C6.29899 3.42484 6.65716 3.06667 7.09899 3.06667C7.54082 3.06667 7.89899 3.42484 7.89899 3.86667V8.50716C8.25067 8.43572 8.60816 8.4 8.96566 8.4V2.8Z" />
</svg>

<svg xmlns="http://www.w3.org/2000/svg" width="20" height="20" fill="none" viewBox="0 0 20 20">
    <path d="M8.966 2.8a.8.8 0 1 1 1.6 0v5.845q.553.173 1.066.468V3.867a.8.8 0 0 1 1.6 0v7.777a3.2 3.2 0 0 0-2.31 1.688 6.4 6.4 0 0 1 2.844-.665.533.533 0 0 0 .533-.534v-1.611c.003-.61.237-1.22.703-1.686a.8.8 0 0 1 1.131 1.132.8.8 0 0 0-.234.561v2.138h-.003a4.27 4.27 0 0 1-1.247 2.85l-1.234 1.233c-.8.8-1.885 1.25-3.017 1.25H8.966a5.333 5.333 0 0 1-5.334-5.333V6a.8.8 0 0 1 1.6 0v3.925A5.3 5.3 0 0 1 6.3 9.113V3.867a.8.8 0 1 1 1.6 0v4.64A5.4 5.4 0 0 1 8.966 8.4z"/>
</svg>
